X: 103
T: Si beag, si mhor
B: begged borrowed and stolen
M:3/4
L:1/8
Q: 1/4=100
K:D
V:1 
de \
|: "D"f2 fe d2 | d2 de d2 | "G"B4 A2 | "D"F4 A2 | "G"BA Bc d2 | "A"e4 de | "(D)"f4 "A7"e2 | "D"d4 f2 |
| "G"B4 e2 | "D"A4 d2 | "A7"F4 E2 | "D(Bm)"D4 f2 | "G"B4 e2 | "A"A4 dc |1 "D"d4 "(A)"dc | "D"d4 :|2"D"d4 "(A)"dc | "D"d4de  ||
|:"D"f2 fe d2 | ed ef a2 | "G"b4 a2 | "D"f4 ed | "A"e4 a2 | "D"f4 ed | "G(Bm)"d4 B2 | "A7"B4 BA |
| "A7"F4 E2 | "D"D4 f2 | "G"B4 e2 | "D"A4 a2 | "G(Em)"ba gf ed | "A"e4 dc | "G"d4 dc |1 "D"d4 de :|2 "D"d6||
% abcbook-tune_id 627e2b1f6b5eecde72a774d9


% abcbook-boost 0
% abcbook-tablature 
% abcbook-transpose 
% abcbook-lastupdated 1652725431151
% abcbook-soundfonts 
% abcbook-repeats 3
% Titles One title
% Transcriptions Only 1 transcription
% Movement Has some stepwise movement
% Mode major
% Key D
% Time_signature 3/4
% Has_accompaniment_chords Has chords

